**kern	**kern
*staff1	*staff1
*intro1[intro1a]	*intro1[intro1a]
*head1[head1a]	*head1[head1a]
*head1[head1b]	*head1[head1b]
*head1[head1aa]	*head1[head1aa]
*solo1[solo1a]	*solo1[solo1a]
*solo1[solo1b]	*solo1[solo1b]
*solo1[solo1aa]	*solo1[solo1aa]
=1-	=1-
*clefG2	*clefG2
*k[]	*k[]
*B-:	*B-:
*M4/4	*M4/4
1r	.
=2	=2
1r	.
=3	=3
1r	.
=4	=4
1r	.
=5	=5
1r	.
=6	=6
1r	.
=7	=7
1r	.
=8	=8
1r	.
=9	=9
2r	1B-:min
*>intro1a	*>intro1a
{4f/	.
4f/	.
=10||	=10||
4f/	1B-:min
4f/	.
4f/	.
4f/	.
=11	=11
8e-/L	1C-:maj
8d/	.
8e-/	.
8f/J	.
[2g-/	.
=12	=12
1g-]}	1C-:maj
=13	=13
2r	1B-:min
{4f/	.
4f/	.
=14	=14
4f/	1B-:min
4f/	.
4f/	.
4f/	.
=15	=15
8e-/L	1C-:maj
8f/	.
8e-/	.
8d-/J	.
[2B/	.
=16	=16
2.B/]}	1C-:maj
4r	.
=17	=17
8r	.
{8F/L	.
8G/	.
8A/J	.
8c/L	.
8B-/	.
8d-/	.
[8f/J	.
=18	=18
8f/L]	.
8f/J	.
[4e-/	.
8e-/]	.
4d-/	.
8f/	.
=19	=19
8e-/L	.
8B/J}	.
4r	.
2r	.
=20	=20
2r	.
8r	.
{8f/L	.
8a/	.
8b-/J	.
=21	=21
4r	.
8r	.
[8d/	.
8d/L]	.
[8B-/	.
8B-/J]	.
8r	.
=22	=22
8r	.
4F/	.
8f/	.
2B;/}	.
=23	=23
1r	.
=24	=24
2r	.
4r	.
8r	.
*>head1a	*>head1a
{8dd\	.
=25	=25
8ff\L	1B-:maj
8a\	.
8b-\	.
8cc\J	.
8dd\L	.
8ff\	.
8cc\	.
8bn\J	.
=26	=26
8b-/L	2C:min
8g/	.
8e-/	.
8c/J	.
8a/	2F:dom
4cc\	.
8b-\	.
=27	=27
8dd/L	2D:min
8f/J	.
8r	.
8dd\	.
8ee-/L	2G:dom
8b/	.
8a-/	.
8f/J	.
=28	=28
4dd\	2C:min
8dd\L	.
[8dd-\J	.
8dd-\]	2F:dom
24a/LL	.
24g/	.
24f/JJ	.
4e-/}	.
=29	=29
8r	2F;min
{8F/L	.
8A-/	.
8c/J	.
8g/L	2B-:dom
8g-/	.
8f/	.
8e/J	.
=30	=30
4e-/	2E-:dom
8r	.
8d-/	.
8a/L	2E:h
8en/	.
8g/	.
[8f/J	.
=31	=31
8f/]	2B-:dom
8r	.
8r	.
[8A-/	.
8A-/L]	2G:dom:9-
8e-/	.
8g/	.
8f/J	.
=32	=32
8d/L	2C:min
8e-/	.
8B-/	.
8G/J	.
4d/}	2F:dom
8r	.
8dd\	.
=33	=33
8r	2F:min
8d/L	.
8e-/	.
8c/J	.
8d/L	2B-:dom
8d-/	.
8c/	.
8B/J	.
=34:|!	=34:|!
8B-/L	2E-:dom
8F#/J	.
12G/L	.
12B-/	.
12d/J	.
4.a/	2E:h7
16f/LL	.
16e-/JJ	.
=35	=35
4d/	1B-:dom
8d/L	.
[8e-/J	.
8e-/L]	.
8e-/J	.
4f/	.
=36	=36
8r	1B-:dom
8d/L	.
8e-/	.
8B-/J	.
8d/	.
4e-/	.
[8A-/	.
=37	=37
4A-/]	1D:dom
4r	.
2r	.
=38||	=38||
8r	1D:dom
*>head1b	*>head1b
{8g/L	.
8a-/	.
8d-/J	.
8g/	.
4a-/	.
[8d-/	.
=39	=39
4d-/]}	1G:dom
4r	.
2r	.
=40	=40
8r	1G:dom
{8c/L	.
8d/	.
8G/J	.
12c/L	.
12d/	.
12c/J	.
8B-/L	.
[8d/J	.
=41	=41
4d/]	1C:dom
4r	.
8a/L	.
16a-/L	.
16g/JJ	.
4g-/	.
=42	=42
8r	1C:dom
[8a/L	.
8a/]	.
16a-/L	.
16g/JJ	.
4g-/	.
4r	.
=43	=43
12f/L	1C:min
12g/	.
12f/J	.
8e-/L	.
8c/J	.
8f/	.
4e-/	.
8f/}	.
=44	=44
2r	1F:dom
4r	.
8r	.
*>head1aa	*>head1aa
{8dd\	.
=45	=45
8ff\L	1B-:maj
8a\	.
8b-\	.
8cc\J	.
8dd\L	.
8ff\	.
8cc\	.
8bn\J	.
=46||	=46||
8b-/L	2C:min
8g/	.
8e-/	.
8c/J	.
8a/	2F:dom
4cc\	.
8b-\	.
=47	=47
8dd/L	2D:min
8f/J	.
8r	.
8dd\	.
8ee-/L	2G:dom
8b/	.
8a-/	.
8f/J	.
=48	=48
4dd\	2C:min
8dd\L	.
[8dd-\J	.
8dd-\]	2F:dom
24a/LL	.
24g/	.
24f/JJ	.
4e-/}	.
=49	=49
8r	2F:min
{8d/L	.
8e-/	.
8B-/J	.
8d/L	2B-:dom
8d-/	.
8c/	.
8Bn/J	.
=50	=50
8B-/L	2E-:dom
8A-/J	.
12An/L	.
12c/	.
12e-/J	.
4.a/	2E:o7
8g/	.
=51	=51
8d/	1B-:dom
8r	.
8d/L	.
8e-/J	.
8r	.
8e-/L	.
8f/	.
[8d/J	.
=52	=52
8d/L]	2C:min
8B-/J	.
8r	.
8B-/}	.
2r	2F:dom
=53	=53
*>solo1a	*>solo1a
{8f/L	1B-:dom
8g/	.
8b-/	.
[8dd/J	.
4.dd\]	.
8b-\	.
=54||	=54||
8cc\L	2C:min
8b-\J}	.
4r	.
2r	2F:dom
=55	=55
8r	2D:min
{8c#/	.
12d/L	.
12f/	.
12a/J	.
8cc/L	4G:dom
8a/	.
8b/	4D-:min
8a-/J	.
=56	=56
8e/L	2C:min
8d-/	.
8b-/	.
8a/J	.
8g/L	2F:dom
8g-/	.
8f/	.
8e/J	.
=57	=57
8e-/L	2F:min
8B-/	.
8Bn/	.
8c/J	.
8A-/L	2B-:dom
8c/	.
8g/	.
8f/J	.
=58	=58
8e-/L	2E-:dom
8A/	.
8B-/	.
8c/J	.
8d-/L	2E:o7
8B-/	.
8G/	.
8A/J	.
=59	=59
8c/L	1B-:dom
8B-/J	.
12A/L	.
12B-/	.
12d/J	.
12f/L	.
12g/	.
12a/J	.
12b-\L	.
12cc\	.
12cc#\J	.
=60	=60
8dd/L	2C:min
[8f/J	.
4f/]}	.
2r	2F:dom
=61	=61
4r	1B-:dom
{8dd-\L	.
8ddn\J	.
8gg\L	.
8gg-\	.
8ff\	.
8ee\J	.
=62||	=62||
8ee-\L	2C:min
8a\	.
8b-\	.
8cc\J	.
4.dd\	2F:dom
8b-\	.
=63	=63
8cc\L	2D:min
8b-\	.
8bn\	.
8a-\J	.
8e/L	2G:dom
8c#/	.
8b-/	.
8an/J	.
=64	=64
8g/L	2C:min
8g-/	.
8f/	.
8e/J	.
8e-/L	2F:dom
8c#/	.
8d/	.
8f/J	.
=65	=65
8c/L	1B-:dom
8B-/	.
8Bn/	.
8c/J	.
8A-/L	.
8c/	.
8g/	.
8f/J	.
=66	=66
8e-/L	2E-:dom
8A/	.
8B-/	.
8c/J	.
8d-/L	2E:o7
8B-/	.
8G/	.
8A/J	.
=67	=67
8c/L	1B-:dom
8A/	.
8B-/	.
8d/J}	.
2r	.
=68	=68
1r	1B-:dom
=69	=69
8r	1D:dom
*>solo1b	*>solo1b
{8dd\	.
12cc\L	.
12b\	.
12cc\J	.
8ee-/L	.
8b/	.
8g/	.
8e-/J	.
=70||	=70||
8d/L	1D:dom
8f#/	.
8a/	.
8cc/J	.
8b-/L	.
8f#/	.
8e-/	.
8c/J	.
=71	=71
8B/L	1G:dom
8d/	.
8f/	.
8a/J	.
8b-/L	.
8g-/	.
8e-/	.
8c/J	.
=72	=72
8B/L	1G:dom
8e-/J	.
12g\L	.
12b-\	.
12dd\J	.
8ee-/L	.
8bn/	.
8a-/	.
8f/J	.
=73	=73
8e/L	1C:dom
8g/	.
8b-/	.
8dd/J	.
12a\L	.
12b-\	.
12bn\J	.
8cc\L	.
8b\J	.
=74	=74
8b-/L	1C:dom
8a/	.
8g/	.
8g-/J	.
4f/}	.
4r	.
=75	=75
4r	1C:min
8r	.
*>solo1aa	*>solo1aa
{16c/LL	.
16e-/JJ	.
8g\L	.
8b-\	.
8dd\	.
8cc\J	.
=76	=76
8r	1F:dom
8b-\	.
8r	.
8g/	.
8a/L	.
[8ff#/J	.
4ff#\]	.
=77	=77
8ff\L	2B-:maj
8a\	.
8b-\	.
8ee-\J	.
8dd\L	2G:dom
8dd-\	.
8cc\	.
8bn\J	.
=78||	=78||
4b-\	2C:min
8r	.
8g/	.
8e-/L	2F:dom
8c/	.
8d/	.
8f/J	.
=79	=79
8r	2D:min
8A/	.
12B/L	.
12d/	.
12f/J	.
8a/L	2G:dom
8a-/	.
8g/	.
8g-/J	.
=80	=80
8f/L	2C:min
8e/	.
8e-/	.
8B-/J	.
8G/L	2F:dom
8F#/	.
8d/	.
[8c/J	.
=81	=81
4c/]}	1B-:dom
4r	.
4r	.
8r	.
{[8cc\	.
=82	=82
8cc\]	2E-:dom
4b-\	.
8dd-\	.
8b-\L	2E:o7
8b-\J}	.
4r	.
=83	=83
4r	2B-:maj
{8cc\L	.
8b\J	.
8b-/L	2G:dom
8a-/	.
8g/	.
8g-/J	.
=84	=84
8f/L	2C:min
8e-/	.
8d/	.
8c/J	.
12B-/L	2F:dom
12Bn/	.
12c/J	.
8B-/L	.
8c/J	.
=85	=85
2d/}	1B-:maj
2r	.
==	==
*-	*-
